X: 77
T: Sally Ann
C:Traditional
B: canberra pickers and fiddlers
B: old time tunes update
B: tunes
M:4/4
L:1/8
R: Reel
Q: 1/4=100
K:D
V:1 
(fg|:"D"a2)ag (fe)(fg|a2)(ag) (fe)(fg|a2)ag f(efg|a2)(afa2)(a2|
b2)a2fed2|(ef2)(efe) ((f2|"A"f)e)dd BA(Bc|1"D"d2)d(cd2) (fg:|2"D"d2)d(cd3) (e|||:"D"f2f2(fe)(fe)|f2
% abcbook-tune_id 67a7d9eca595b32c835b7184
% abcbook-tune_composer_id 
% abcbook-link-0 https://www.youtube.com/watch?v=uRAsJQ_jl9I
% abcbook-link-title-0 Wild Ponies &quot;Sally Ann&quot; (Traditional) @ Eddie Owen Presents
% abcbook-boost 0
% abcbook-difficulty 0
% abcbook-tags old time tunes
% abcbook-tablature 
% abcbook-transpose -5
% abcbook-tuning AEAE
% abcbook-lastupdated 1739252676477
% abcbook-src-url 
% abcbook-soundfonts 
% abcbook-repeats 1
%%MIDI transpose -5
% Rhythm Reel
% Titles One title
% Transcriptions Only 1 transcription
% Movement Has lots of stepwise movement
% Movement Has some stepwise movement
% Mode major
% Key D
% Time_signature 4/4
% Has_accompaniment_chords Has chords

